_uploads/sponsor-january-third.svg

<svg xmlns="http://www.w3.org/2000/svg" width="240" height="110" fill="none" viewBox="0 0 240 110"><g clip-path="url(#clip0)"><path fill="#fff" fill-rule="evenodd" d="M13.6807 108.599H18.9426V67.5225H13.6807V108.599ZM0.520508 64.6469H32.1025V59.5123H0.520508V64.6469ZM67.5264 87.102V108.599H62.4695V87.102C62.4695 87.102 62.2646 76.5585 51.946 76.5585C51.946 76.5585 47.3676 76.3532 44.2241 80.2557V74.7102C45.7957 73.341 48.1877 72.1084 51.946 71.9715C51.946 71.9715 67.5264 71.013 67.5264 87.102ZM41.3539 89.4297V108.599H36.3656V59.5123H41.3539V89.4297Z" clip-rule="evenodd"/><mask id="mask0" width="57" height="51" x="86" y="59" mask-type="alpha" maskUnits="userSpaceOnUse"><path fill="#000" d="M86.7134 59.5123H142.037V109.268H86.7134V59.5123Z"/></mask><g mask="url(#mask0)"><path fill="#fff" fill-rule="evenodd" d="M105.574 72.0402V77.2432C104.89 77.1063 104.139 77.0379 103.387 77.0379C99.4236 77.0379 96.5534 78.4071 94.5719 80.8035V74.984C96.9636 72.7247 100.107 71.9031 103.387 71.9031C104.139 71.9031 104.89 71.9715 105.574 72.0402ZM86.7134 108.599H91.77V72.6562H86.7134V108.599ZM136.98 108.599H142.037V59.5123H136.98V108.599ZM134.178 105.998C131.377 108.462 127.413 109.284 123.996 109.284C113.883 109.284 106.844 101.548 106.776 90.5935C106.844 79.6394 113.951 71.9031 123.996 71.9031C127.413 71.9031 131.377 72.7247 134.178 75.1893V81.1455C131.923 78.1333 128.37 76.4901 123.996 76.4901C116.001 76.4901 111.833 82.3781 111.764 90.5935C111.833 98.8093 116.001 104.697 123.996 104.697C128.37 104.697 131.923 103.054 134.178 100.11V105.998Z" clip-rule="evenodd"/></g><path fill="#fff" fill-rule="evenodd" d="M73.9895 108.599H79.0464V72.5877H73.9895V108.599ZM79.5509 63.954C79.5509 65.7508 78.0972 67.2072 76.3038 67.2072C74.5106 67.2072 73.0567 65.7508 73.0567 63.954C73.0567 62.1575 74.5106 60.7008 76.3038 60.7008C78.0972 60.7008 79.5509 62.1575 79.5509 63.954ZM26.7328 32.6568H31.9944V0H26.7328V32.6568ZM26.7328 35.4639H31.9944C31.9944 53.2643 16.2773 52.3742 16.2773 52.3742C-1.07968 52.3742 0.0136882 35.4639 0.0136882 35.4639H5.07036C5.07036 48.6773 16.2773 47.5819 16.2773 47.5819C27.0744 47.5819 26.7328 35.4639 26.7328 35.4639ZM68.3483 29.2337V51.6895H63.2917V26.4268C63.2917 22.7296 59.3964 19.7856 53.6563 19.7856C47.8479 19.7856 43.8843 23.4144 43.8843 28.412V28.8914H38.8276V28.412C38.8276 21.7711 44.0895 15.1304 53.6563 15.1304C63.4283 15.1304 68.3483 19.9912 68.3483 29.2337ZM60.4898 49.2249C58.6449 50.8681 55.5698 52.3742 50.3079 52.3742C43.0645 52.3742 37.461 48.4033 37.461 42.3786C37.461 29.1652 53.7246 31.9036 60.4898 29.5762V34.0944C54.2031 35.8746 42.3127 34.4369 42.5177 42.1048C42.586 45.6649 45.1146 47.5819 50.3079 47.5819C55.023 47.5819 58.3716 45.6649 60.4898 43.2002V49.2249ZM105.727 30.1922V51.6895H100.67V30.1922C100.67 30.1922 100.465 19.6487 90.1464 19.6487C90.1464 19.6487 85.4996 19.4434 82.4245 23.3459V17.732C83.9277 16.294 86.388 15.0617 90.1464 14.9933C90.1464 14.9933 105.727 14.1032 105.727 30.1922ZM79.5543 33.3415V51.6895H74.4976V15.678H79.5543V33.3415ZM137.119 51.6895H142.176V15.678H137.119V51.6895ZM134.317 49.6358C132.745 51.0735 130.354 52.3058 126.595 52.3742C126.595 52.3742 111.015 53.3327 111.015 37.2438V15.678H116.003V37.2438C116.003 37.2438 116.277 47.7188 126.595 47.7188C126.595 47.7188 131.174 47.9926 134.317 44.0216V49.6358ZM178.01 29.2337V51.6895H172.953V26.4268C172.953 22.7296 169.058 19.7856 163.318 19.7856C157.509 19.7856 153.546 23.4144 153.546 28.412V28.8914H148.489V28.412C148.489 21.7711 153.751 15.1304 163.318 15.1304C173.09 15.1304 178.01 19.9912 178.01 29.2337ZM170.151 49.2249C168.306 50.8681 165.231 52.3742 159.969 52.3742C152.726 52.3742 147.122 48.4033 147.122 42.3786C147.122 29.1652 163.386 31.9036 170.151 29.5762V34.0944C163.864 35.8746 151.974 34.4369 152.179 42.1048C152.247 45.6649 154.776 47.5819 159.969 47.5819C164.684 47.5819 168.033 45.6649 170.151 43.2002V49.2249Z" clip-rule="evenodd"/><mask id="mask1" width="59" height="64" x="182" y="14" mask-type="alpha" maskUnits="userSpaceOnUse"><path fill="#000" d="M182.081 14.9934H240V77.6495H182.081V14.9934Z"/></mask><g mask="url(#mask1)"><path fill="#fff" fill-rule="evenodd" d="M200.162 15.1306V20.3336C199.479 20.1967 198.727 20.1282 197.975 20.1282C194.012 20.1282 191.142 21.4974 189.16 23.8939V18.0743C191.552 15.815 194.695 14.9934 197.975 14.9934C198.727 14.9934 199.479 15.0619 200.162 15.1306ZM182.081 51.6896H187.138V15.7466H182.081V51.6896ZM221.823 43.8164H227.427L240.001 15.6781H234.465L221.823 43.8164ZM221.14 43.8164H215.536L202.963 15.6781H208.498L221.14 43.8164Z" clip-rule="evenodd"/><path fill="#fff" fill-rule="evenodd" d="M206.756 77.6494H212.36L240 15.678H234.465L206.756 77.6494Z" clip-rule="evenodd"/></g></g><defs><clipPath id="clip0"><rect width="240" height="109.268" fill="#fff"/></clipPath></defs></svg>

<svg xmlns="http://www.w3.org/2000/svg" width="240" height="110" fill="none"><g clip-path="url(#clip0)"><path fill="#fff" fill-rule="evenodd" d="M13.68 108.599h5.263V67.522H13.68V108.6zM.52 64.647h31.582v-5.135H.521v5.135zm67.006 22.455v21.497H62.47V87.102s-.205-10.544-10.524-10.544c0 0-4.578-.205-7.722 3.698V74.71c1.572-1.369 3.964-2.602 7.722-2.738 0 0 15.58-.959 15.58 15.13zM41.354 89.43v19.169h-4.988V59.512h4.988V89.43z" clip-rule="evenodd"/><mask id="a" width="57" height="51" x="86" y="59" maskUnits="userSpaceOnUse"><path fill="#000" d="M86.713 59.512h55.324v49.756H86.713V59.512z"/></mask><g mask="url(#a)"><path fill="#fff" fill-rule="evenodd" d="M105.574 72.04v5.203a11.297 11.297 0 0 0-2.187-.205c-3.963 0-6.834 1.37-8.815 3.766v-5.82c2.392-2.26 5.535-3.08 8.815-3.08.752 0 1.503.068 2.187.136zM86.714 108.6h5.056V72.656h-5.057V108.6zm50.266 0h5.057V59.512h-5.057V108.6zm-2.802-2.601c-2.801 2.464-6.765 3.286-10.182 3.286-10.113 0-17.152-7.736-17.22-18.69.068-10.955 7.175-18.69 17.22-18.69 3.417 0 7.381.82 10.182 3.285v5.957c-2.255-3.013-5.808-4.656-10.182-4.656-7.995 0-12.163 5.888-12.232 14.104.069 8.215 4.237 14.103 12.232 14.103 4.374 0 7.927-1.643 10.182-4.587v5.888z" clip-rule="evenodd"/></g><path fill="#fff" fill-rule="evenodd" d="M73.99 108.599h5.056V72.588H73.99v36.011zm5.56-44.645a3.25 3.25 0 0 1-3.246 3.253 3.25 3.25 0 0 1-3.247-3.253 3.25 3.25 0 0 1 3.247-3.253 3.25 3.25 0 0 1 3.247 3.253zM26.734 32.657h5.261V0h-5.261v32.657zm0 2.807h5.261c0 17.8-15.717 16.91-15.717 16.91-17.357 0-16.263-16.91-16.263-16.91H5.07c0 13.213 11.207 12.118 11.207 12.118 10.797 0 10.456-12.118 10.456-12.118zm41.615-6.23V51.69h-5.056V26.427c0-3.697-3.896-6.641-9.636-6.641-5.808 0-9.772 3.628-9.772 8.626v.48h-5.056v-.48c0-6.64 5.261-13.282 14.828-13.282 9.772 0 14.692 4.861 14.692 14.104zm-7.858 19.99c-1.845 1.644-4.92 3.15-10.182 3.15-7.243 0-12.847-3.97-12.847-9.995 0-13.214 16.264-10.475 23.029-12.803v4.518c-6.287 1.78-18.177.343-17.972 8.01.068 3.56 2.597 5.478 7.79 5.478 4.715 0 8.064-1.917 10.182-4.382v6.025zm45.237-19.032V51.69h-5.057V30.192s-.205-10.543-10.524-10.543c0 0-4.646-.206-7.722 3.697v-5.614c1.504-1.438 3.964-2.67 7.722-2.739 0 0 15.581-.89 15.581 15.2zm-26.173 3.15V51.69h-5.056V15.678h5.056v17.664zM137.12 51.69h5.057V15.678h-5.057v36.011zm-2.802-2.054c-1.572 1.438-3.963 2.67-7.722 2.738 0 0-15.58.959-15.58-15.13V15.678h4.988v21.566s.274 10.475 10.592 10.475c0 0 4.579.274 7.722-3.697v5.614zm43.693-20.402V51.69h-5.057V26.427c0-3.697-3.895-6.641-9.635-6.641-5.809 0-9.772 3.628-9.772 8.626v.48h-5.057v-.48c0-6.64 5.262-13.282 14.829-13.282 9.772 0 14.692 4.861 14.692 14.104zm-7.859 19.99c-1.845 1.644-4.92 3.15-10.182 3.15-7.243 0-12.847-3.97-12.847-9.995 0-13.214 16.264-10.475 23.029-12.803v4.518c-6.287 1.78-18.177.343-17.972 8.01.068 3.56 2.597 5.478 7.79 5.478 4.715 0 8.064-1.917 10.182-4.382v6.025z" clip-rule="evenodd"/><mask id="b" width="59" height="64" x="182" y="14" maskUnits="userSpaceOnUse"><path fill="#000" d="M182.081 14.993H240V77.65h-57.919V14.993z"/></mask><g mask="url(#b)" fill="#fff" fill-rule="evenodd" clip-rule="evenodd"><path d="M200.162 15.13v5.204a11.29 11.29 0 0 0-2.187-.206c-3.963 0-6.833 1.37-8.815 3.766v-5.82c2.392-2.259 5.535-3.08 8.815-3.08.752 0 1.504.068 2.187.137zm-18.081 36.56h5.057V15.747h-5.057V51.69zm39.742-7.874h5.604l12.574-28.138h-5.536l-12.642 28.138zm-.683 0h-5.604l-12.573-28.138h5.535l12.642 28.138z"/><path d="M206.756 77.65h5.604L240 15.677h-5.535l-27.709 61.971z"/></g></g><defs><clipPath id="clip0"><path fill="#fff" d="M0 0H240V109.268H0z"/></clipPath></defs></svg>
